X:93
T: Der heimkehrende Soldat
N: Q0103J
O: Mitteleuropa, Deutschland (DDR) , Brandenburg
N: Anhaengsel; letzte Zeile = Refrain.
R: Ballade, Ehe, Betrug
M: 6/4
L: 1/8
K: G
D2 | D2G2G2G2B2B2 | B2d2d2d2c2A2 | G4z6
D2 | D2G2G2G2B2B2 | B2d2d2d2c2A2 | G4z6
GB | d2d2d2d2e2d2 | c4B2c4
c2 | B2B2B2d2c2B2 | A2d2d2d2d2
c2 | B4B2A4A2 | G6z4

@@@ Tune index: 1386
